assets/icons/qvision/broken_image.svg

<svg width="24" height="24" viewBox="0 0 24 24" fill="none" xmlns="http://www.w3.org/2000/svg">
<g clip-path="url(#clip0_147_3263)">
<path d="M21 5V11.59L18 8.58L14 12.59L10 8.59L6 12.59L3 9.58V5C3 3.9 3.9 3 5 3H19C20.1 3 21 3.9 21 5ZM18 11.42L21 14.43V19C21 20.1 20.1 21 19 21H5C3.9 21 3 20.1 3 19V12.42L6 15.41L10 11.41L14 15.41L18 11.42Z" fill="#323232"/>
</g>
<defs>
<clipPath id="clip0_147_3263">
<rect width="24" height="24" fill="white"/>
</clipPath>
</defs>
</svg>

<svg xmlns="http://www.w3.org/2000/svg" height="24" viewBox="0 0 24 24" width="24"><path d="M0 0h24v24H0z" fill="none"/><path d="M0 0h24v24H0zm0 0h24v24H0zm21 19c0 1.1-.9 2-2 2H5c-1.1 0-2-.9-2-2V5c0-1.1.9-2 2-2h14c1.1 0 2 .9 2 2" fill="none"/><path d="M21 5v6.59l-3-3.01-4 4.01-4-4-4 4-3-3.01V5c0-1.1.9-2 2-2h14c1.1 0 2 .9 2 2zm-3 6.42l3 3.01V19c0 1.1-.9 2-2 2H5c-1.1 0-2-.9-2-2v-6.58l3 2.99 4-4 4 4 4-3.99z"/></svg>
